style-guide/assets/xd-icons-camera.svg

<svg viewBox="0 0 24 24" xmlns="http://www.w3.org/2000/svg">
    <path d="M2 4h2a1 1 0 1 0 0-2H2a1 1 0 1 0 0 2m19 17H3V8h2c.266 0 .52-.105.707-.293L9.414 4h5.172l3.707 3.707A.996.996 0 0 0 19 8h2v13zm1-15h-2.586l-3.707-3.707A.996.996 0 0 0 15 2H9a.996.996 0 0 0-.707.293L4.586 6H2a1 1 0 0 0-1 1v15a1 1 0 0 0 1 1h20a1 1 0 0 0 1-1V7a1 1 0 0 0-1-1zm-10 9c-1.103 0-2-.896-2-2s.897-2 2-2 2 .896 2 2-.897 2-2 2m0-6c-2.206 0-4 1.795-4 4s1.794 4 4 4 4-1.795 4-4-1.794-4-4-4"/>
</svg>

<?xml version="1.0" encoding="UTF-8"?>
<svg width="24px" height="24px" viewBox="0 0 24 24" version="1.1" xmlns="http://www.w3.org/2000/svg" xmlns:xlink="http://www.w3.org/1999/xlink">
    <!-- Generator: Sketch 51.3 (57544) - http://www.bohemiancoding.com/sketch -->
    <title>camera</title>
    <desc>Created with Sketch.</desc>
    <defs>
        <path d="M2,4 L4,4 C4.553,4 5,3.553 5,3 C5,2.447 4.553,2 4,2 L2,2 C1.447,2 1,2.447 1,3 C1,3.553 1.447,4 2,4 M21,21 L3,21 L3,8 L5,8 C5.266,8 5.52,7.895 5.707,7.707 L9.414,4 L14.586,4 L18.293,7.707 C18.48,7.895 18.734,8 19,8 L21,8 L21,21 Z M22,6 L19.414,6 L15.707,2.293 C15.52,2.105 15.266,2 15,2 L9,2 C8.734,2 8.48,2.105 8.293,2.293 L4.586,6 L2,6 C1.447,6 1,6.447 1,7 L1,22 C1,22.553 1.447,23 2,23 L22,23 C22.553,23 23,22.553 23,22 L23,7 C23,6.447 22.553,6 22,6 Z M12,15 C10.897,15 10,14.104 10,13 C10,11.896 10.897,11 12,11 C13.103,11 14,11.896 14,13 C14,14.104 13.103,15 12,15 M12,9 C9.794,9 8,10.795 8,13 C8,15.205 9.794,17 12,17 C14.206,17 16,15.205 16,13 C16,10.795 14.206,9 12,9" id="path-1"></path>
    </defs>
    <g id="camera" stroke="none" stroke-width="1" fill="none" fill-rule="evenodd">
        <mask id="mask-2" fill="white">
            <use xlink:href="#path-1"></use>
        </mask>
        <use id="icons/24px/Camera" fill="#000000" xlink:href="#path-1"></use>
    </g>
</svg>
